dist/styles/ag-theme-alpine/icons/left.svg

<!-- Generated by IcoMoon.io -->
<svg version="1.1" xmlns="http://www.w3.org/2000/svg" width="32" height="32" viewBox="0 0 32 32">
<title>left</title>
<path d="M26.667 14.667h-16.227l7.453-7.453-1.893-1.88-10.667 10.667 10.667 10.667 1.88-1.88-7.44-7.453h16.227v-2.667z"></path>
</svg>

<?xml version="1.0" encoding="UTF-8" standalone="no"?>
<!DOCTYPE svg PUBLIC "-//W3C//DTD SVG 1.1//EN" "http://www.w3.org/Graphics/SVG/1.1/DTD/svg11.dtd">
<svg width="100%" height="100%" viewBox="0 0 32 32" version="1.1" xmlns="http://www.w3.org/2000/svg" xmlns:xlink="http://www.w3.org/1999/xlink" xml:space="preserve" xmlns:serif="http://www.serif.com/" style="fill-rule:evenodd;clip-rule:evenodd;stroke-linejoin:round;stroke-miterlimit:2;">
    <path id="left" d="M26.667,14.667L10.44,14.667L17.893,7.214L16,5.334L5.333,16.001L16,26.668L17.88,24.788L10.44,17.335L26.667,17.335L26.667,14.667Z" style="fill-rule:nonzero;"/>
</svg>
